X:565
T: ICH GUNG ENMAL SPAZIERE
N: E0533
O: Europa, Mitteleuropa, Deutschland
R: Liebes - Lied
M: 2/4
L: 1/16
K: G
D2 | G2F2G2A2 | B4G2D2 | A4z2
D2 | G2F2G2A2 | B4G4 |
A2AAA2dd | B4z2
B2 | B2A2G2F2 | F4E2
B,2 | E4z2D2 | G4z2D2 | B6

@@@ Tune index: 4215
